public/assets/techs/php.svg

<svg width="20" height="20" viewBox="0 0 20 20" fill="none" xmlns="http://www.w3.org/2000/svg">
<g clip-path="url(#clip0_310_63)">
<path fill-rule="evenodd" clip-rule="evenodd" d="M14.4705 14.7656C13.9176 14.7656 13.3861 14.7656 12.8283 14.7656C13.3168 12.2533 13.8033 9.75134 14.2906 7.24515C14.3373 7.24056 14.3759 7.23347 14.4144 7.23347C15.4733 7.2332 16.5323 7.22495 17.5909 7.23949C17.8902 7.24357 18.1957 7.2865 18.486 7.36003C19.4308 7.59937 19.9906 8.29956 19.9998 9.27204C20.0106 10.4153 19.5925 11.3712 18.6859 12.096C18.0985 12.5656 17.4102 12.7299 16.6811 12.7541C16.1292 12.7724 15.5763 12.7645 15.0239 12.7618C14.9061 12.7611 14.853 12.7876 14.8296 12.9167C14.7183 13.5296 14.5934 14.1401 14.4705 14.7656ZM15.0885 11.5971C15.6608 11.5746 16.1936 11.5803 16.7202 11.5263C17.4083 11.4558 17.8975 11.084 18.0999 10.4107C18.1969 10.088 18.2579 9.74564 18.273 9.40941C18.297 8.87738 18.073 8.57574 17.5453 8.50341C16.9445 8.42099 16.3321 8.42202 15.7126 8.38615C15.5021 9.46929 15.2999 10.5097 15.0885 11.5971Z" fill="#EEEEEE"/>
<path fill-rule="evenodd" clip-rule="evenodd" d="M1.64193 14.763C1.08949 14.763 0.552266 14.763 0 14.763C0.487793 12.2534 0.973477 9.75477 1.46117 7.24569C1.51574 7.24122 1.56619 7.23346 1.61668 7.23342C2.65574 7.23303 3.6949 7.22561 4.73381 7.23897C5.0268 7.2427 5.32572 7.28059 5.61039 7.35008C6.54621 7.57848 7.08607 8.17114 7.15725 9.12743C7.29607 10.9939 6.04736 12.3105 4.81236 12.6121C4.48285 12.6927 4.13939 12.7374 3.80029 12.7526C3.26205 12.7767 2.72203 12.7647 2.18283 12.7619C2.07174 12.7614 2.0241 12.79 2.00229 12.9086C1.88965 13.5219 1.76561 14.133 1.64193 14.763ZM2.25914 11.5968C2.82768 11.5747 3.36063 11.5809 3.8874 11.5268C4.59316 11.4544 5.08361 11.0685 5.28213 10.3764C5.37154 10.0645 5.43035 9.73579 5.4442 9.41225C5.46697 8.88034 5.24396 8.57624 4.71803 8.50397C4.11693 8.42131 3.50436 8.4221 2.88359 8.38585C2.67297 9.46899 2.47055 10.5098 2.25914 11.5968Z" fill="#EEEEEE"/>
<path fill-rule="evenodd" clip-rule="evenodd" d="M8.3042 5.23438C8.85815 5.23438 9.38877 5.23438 9.93332 5.23438C9.80449 5.9024 9.67805 6.55836 9.54797 7.23289C9.9909 7.23289 10.4182 7.21797 10.844 7.23705C11.2756 7.25637 11.7148 7.26688 12.1347 7.35613C13.022 7.54477 13.3953 8.12117 13.2362 9.02764C13.0559 10.0555 12.8471 11.0783 12.6505 12.1033C12.6159 12.2838 12.5873 12.4659 12.5417 12.6435C12.5296 12.6905 12.4648 12.7578 12.4233 12.7584C11.9119 12.7663 11.4004 12.7635 10.867 12.7635C10.9628 12.2657 11.0547 11.7903 11.1457 11.3149C11.2777 10.625 11.418 9.93666 11.5376 9.24473C11.625 8.73867 11.4295 8.48779 10.9138 8.46521C10.3894 8.44229 9.86315 8.46016 9.30861 8.46016C9.03135 9.88301 8.75318 11.3103 8.47256 12.7503C7.93524 12.7503 7.39981 12.7503 6.84305 12.7503C7.33057 10.2425 7.81613 7.74492 8.3042 5.23438Z" fill="#EEEEEE"/>
</g>
<defs>
<clipPath id="clip0_310_63">
<rect width="20" height="20" fill="white"/>
</clipPath>
</defs>
</svg>

<svg xmlns="http://www.w3.org/2000/svg" width="20" height="20" fill="none" xmlns:v="https://vecta.io/nano"><g clip-path="url(#A)" fill-rule="evenodd" fill="#6181b6"><path d="M14.471 14.766h-1.642l1.462-7.52.124-.012 3.177.006c.299.004.605.047.895.121.945.239 1.505.94 1.514 1.912.011 1.143-.407 2.099-1.314 2.824-.587.47-1.276.634-2.005.658l-1.657.008c-.118-.001-.171.026-.194.155l-.359 1.849zm.618-3.168l1.632-.071c.688-.071 1.177-.442 1.38-1.116a4.16 4.16 0 0 0 .173-1.001c.024-.532-.2-.834-.728-.906-.601-.082-1.213-.081-1.833-.117l-.624 3.211zM1.642 14.763H0l1.461-7.517.156-.012 3.117.006a3.94 3.94 0 0 1 .877.111c.936.228 1.476.821 1.547 1.777.139 1.866-1.11 3.183-2.345 3.485-.33.081-.673.125-1.012.14l-1.617.009c-.111-.001-.159.028-.181.147l-.36 1.854zm.617-3.166l1.628-.07c.706-.072 1.196-.458 1.395-1.15a4.18 4.18 0 0 0 .162-.964c.023-.532-.2-.836-.726-.908-.601-.083-1.214-.082-1.834-.118l-.624 3.211zm6.045-6.363h1.629l-.385 1.999 1.296.004c.432.019.871.03 1.291.119.887.189 1.261.765 1.101 1.672l-.586 3.076-.109.54c-.012.047-.077.114-.118.115l-1.556.005.279-1.449.392-2.07c.087-.506-.108-.757-.624-.78L9.309 8.46l-.836 4.29h-1.63l1.461-7.516z"/></g><defs><clipPath id="A"><path fill="#fff" d="M0 0h20v20H0z"/></clipPath></defs></svg>
